X:6
T:Robin Hood, Robin Hood, said Little John.
M:6/8
L:1/8
K:Bb
%%score 1 2
V:1 clef-treble
V:2 clef-bass octave=-1
[V:1]G>AB A>Bc & B,2x D2x|B>AG [DF]2F & D2x4|B2B c2c &E2x [EA]3|[DBd]6|
w:Ro-bin Hood, Ro-bin Hood, said lit-tle John, Come dance* before the Queen,
[V:2]G3^F3|G3B3|G3F3|B,DF B2A|
[V:1]d>ed c>BA & B2x ^F2x|B>AG F>G[EA] & G2x D2x|B2G (^F=E)F &D3C3|[B,G]6||
w:In a red pet-ti-coat And a green jack-et, A white hose and* a green.
[V:2]G3 D3|G,3B,2C|D3D3|G,6||

